X:0126
M:2/4
L:1/8
Q:1/4=84
K:G
gfed|efga|gfed|Te2d2|gfed|efge|dBAG|TA2G2||

